apps/web/assets/svg/password.svg

<svg
	width="24"
	height="24"
	viewBox="0 0 24 24"
	fill="none"
	xmlns="http://www.w3.org/2000/svg"
>
	<g clip-path="url(#clip0_2425_5783)">
		<path
			d="M12.375 13.125C12.375 13.7385 12.0803 14.283 11.625 14.625V17.25C11.625 17.5484 11.5065 17.8345 11.2955 18.0455C11.0845 18.2565 10.7984 18.375 10.5 18.375C10.2016 18.375 9.91548 18.2565 9.70451 18.0455C9.49353 17.8345 9.375 17.5484 9.375 17.25V14.625C9.11932 14.4332 8.91689 14.1793 8.78695 13.8873C8.65702 13.5953 8.60387 13.2749 8.63258 12.9566C8.66128 12.6383 8.77087 12.3326 8.95095 12.0686C9.13103 11.8045 9.37561 11.5909 9.66148 11.4479C9.94734 11.305 10.265 11.2375 10.5843 11.2519C10.9036 11.2663 11.2139 11.362 11.4857 11.53C11.7576 11.6981 11.982 11.9328 12.1377 12.2119C12.2933 12.4911 12.375 12.8054 12.375 13.125V13.125ZM19.875 5.25C19.875 5.44891 19.796 5.63968 19.6553 5.78033C19.5147 5.92098 19.3239 6 19.125 6C18.9261 6 18.7353 5.92098 18.5947 5.78033C18.454 5.63968 18.375 5.44891 18.375 5.25C18.375 5.05109 18.454 4.86032 18.5947 4.71967C18.7353 4.57902 18.9261 4.5 19.125 4.5C19.3239 4.5 19.5147 4.57902 19.6553 4.71967C19.796 4.86032 19.875 5.05109 19.875 5.25Z"
			fill="currentColor"
		/>
		<path
			d="M6 4.5C6 3.30653 6.47411 2.16193 7.31802 1.31802C8.16193 0.474106 9.30653 0 10.5 0C11.6935 0 12.8381 0.474106 13.682 1.31802C14.5259 2.16193 15 3.30653 15 4.5V4.5225C15.4396 3.82612 16.0485 3.25247 16.7699 2.85509C17.4912 2.4577 18.3015 2.24953 19.125 2.25V2.2515C20.1795 2.2513 21.2057 2.59306 22.0496 3.22551C22.8934 3.85795 23.5095 4.74697 23.8052 5.75919C24.101 6.77141 24.0606 7.85225 23.69 8.83955C23.3195 9.82684 22.6387 10.6674 21.75 11.235V16.8757C21.75 17.507 21.5225 18.117 21.1093 18.5942C20.6961 19.0713 20.1247 19.3836 19.5 19.4738V19.5C19.5 20.2956 19.1839 21.0587 18.6213 21.6213C18.0587 22.1839 17.2956 22.5 16.5 22.5H4.5C3.70435 22.5 2.94129 22.1839 2.37868 21.6213C1.81607 21.0587 1.5 20.2956 1.5 19.5V9.75C1.5 8.95435 1.81607 8.19129 2.37868 7.62868C2.94129 7.06607 3.70435 6.75 4.5 6.75H6V4.5ZM18 19.248C17.5511 19.0353 17.1718 18.6995 16.9063 18.2796C16.6408 17.8598 16.4999 17.3732 16.5 16.8765V15.561C16.5 15.1567 16.6177 14.7623 16.839 14.424C16.7677 14.2141 16.7313 13.9939 16.731 13.7723C16.832 13.4763 16.8637 13.1611 16.8237 12.851C16.7836 12.5409 16.6729 12.2441 16.5 11.9835V11.2335C15.4326 10.5521 14.6722 9.48214 14.3798 8.25H4.5C4.10218 8.25 3.72064 8.40804 3.43934 8.68934C3.15804 8.97064 3 9.35218 3 9.75V19.5C3 19.8978 3.15804 20.2794 3.43934 20.5607C3.72064 20.842 4.10218 21 4.5 21H16.5C16.8978 21 17.2794 20.842 17.5607 20.5607C17.842 20.2794 18 19.8978 18 19.5V19.248ZM13.125 4.5C13.125 3.80381 12.8484 3.13613 12.3562 2.64384C11.8639 2.15156 11.1962 1.875 10.5 1.875C9.80381 1.875 9.13613 2.15156 8.64384 2.64384C8.15156 3.13613 7.875 3.80381 7.875 4.5V6.75H13.125V4.5ZM19.125 3.74925C18.3283 3.74857 17.5571 4.02972 16.9478 4.54296C16.3385 5.05619 15.9304 5.76843 15.7957 6.55362C15.661 7.33881 15.8084 8.14633 16.2118 8.8333C16.6152 9.52026 17.2487 10.0424 18 10.3073V11.9813C17.9999 12.0537 18.0142 12.1254 18.0418 12.1923C18.0695 12.2592 18.1101 12.32 18.1613 12.3713L18.3967 12.6038C18.4491 12.6543 18.4907 12.7149 18.5192 12.7819C18.5476 12.8489 18.5623 12.921 18.5623 12.9938C18.5623 13.0665 18.5476 13.1386 18.5192 13.2056C18.4907 13.2726 18.4491 13.3332 18.3967 13.3837C18.3446 13.4337 18.3031 13.4936 18.2748 13.56C18.2464 13.6264 18.2318 13.6978 18.2318 13.77C18.2318 13.8422 18.2464 13.9136 18.2748 13.98C18.3031 14.0464 18.3446 14.1063 18.3967 14.1562C18.4491 14.2068 18.4907 14.2674 18.5192 14.3344C18.5476 14.4014 18.5623 14.4735 18.5623 14.5463C18.5623 14.619 18.5476 14.6911 18.5192 14.7581C18.4907 14.8251 18.4491 14.8857 18.3967 14.9363L18.1613 15.1688C18.1094 15.2195 18.0684 15.2802 18.0407 15.3472C18.013 15.4143 17.9991 15.4862 18 15.5588V16.8743C18 17.1726 18.1185 17.4588 18.3295 17.6697C18.5405 17.8807 18.8266 17.9993 19.125 17.9993C19.4234 17.9993 19.7095 17.8807 19.9205 17.6697C20.1315 17.4588 20.25 17.1726 20.25 16.8743V10.3073C21.0013 10.0424 21.6348 9.52026 22.0382 8.8333C22.4416 8.14633 22.589 7.33881 22.4543 6.55362C22.3196 5.76843 21.9115 5.05619 21.3022 4.54296C20.6929 4.02972 19.9217 3.74857 19.125 3.74925V3.74925Z"
			fill="currentColor"
		/>
	</g>
	<defs>
		<clipPath id="clip0_2425_5783">
			<rect width="24" height="24" fill="white" />
		</clipPath>
	</defs>
</svg>

<svg xmlns="http://www.w3.org/2000/svg" width="24" height="24" fill="none" viewBox="0 0 24 24"><g fill="currentColor" clip-path="url(#a)"><path d="M12.375 13.125c0 .614-.295 1.158-.75 1.5v2.625a1.125 1.125 0 1 1-2.25 0v-2.625a1.875 1.875 0 1 1 3-1.5Zm7.5-7.875a.75.75 0 1 1-1.5 0 .75.75 0 0 1 1.5 0Z"/><path d="M6 4.5a4.5 4.5 0 0 1 9 0v.022a4.874 4.874 0 0 1 4.125-2.272v.002a4.875 4.875 0 0 1 2.625 8.983v5.64a2.625 2.625 0 0 1-2.25 2.599v.026a3 3 0 0 1-3 3h-12a3 3 0 0 1-3-3V9.75a3 3 0 0 1 3-3H6V4.5Zm12 14.748a2.623 2.623 0 0 1-1.5-2.372v-1.315c0-.404.118-.799.339-1.137a2.035 2.035 0 0 1-.108-.652 2.043 2.043 0 0 0-.231-1.789v-.75a4.875 4.875 0 0 1-2.12-2.983H4.5A1.5 1.5 0 0 0 3 9.75v9.75A1.5 1.5 0 0 0 4.5 21h12a1.5 1.5 0 0 0 1.5-1.5v-.252ZM13.125 4.5a2.625 2.625 0 0 0-5.25 0v2.25h5.25V4.5Zm6-.75A3.375 3.375 0 0 0 18 10.306v1.674a.551.551 0 0 0 .161.39l.236.233a.542.542 0 0 1 0 .78.535.535 0 0 0 0 .772.543.543 0 0 1 0 .78l-.236.233a.535.535 0 0 0-.161.39v1.315a1.125 1.125 0 1 0 2.25 0v-6.567a3.375 3.375 0 0 0-1.125-6.558Z"/></g><defs><clipPath id="a"><path fill="#fff" d="M0 0h24v24H0z"/></clipPath></defs></svg>
